assets/images/youtube.svg

<svg width="35" height="35" viewBox="0 0 35 35" fill="none" xmlns="http://www.w3.org/2000/svg">
<path d="M17.9684 34.4547C8.59239 34.4547 0.936768 26.7111 0.936768 17.2274C0.936768 7.74361 8.59239 0 17.9684 0C27.3444 0 35 7.74361 35 17.2274C35 26.7111 27.3444 34.4547 17.9684 34.4547ZM17.9684 1.3051C9.28054 1.3051 2.22704 8.43966 2.22704 17.2274C2.22704 26.015 9.28054 33.1496 17.9684 33.1496C26.6562 33.1496 33.7097 26.015 33.7097 17.2274C33.7097 8.43966 26.6562 1.3051 17.9684 1.3051Z" fill="white"/>
<path d="M17.8824 22.4479C16.162 22.4479 14.4416 22.4479 12.7213 22.3609C12.2051 22.3609 11.603 22.2739 11.0869 22.0129C10.7428 21.8389 10.4848 21.5779 10.3127 21.2298C10.0547 20.6208 9.96867 20.0117 9.88265 19.3157C9.79663 18.0106 9.79663 16.6185 9.79663 15.3134C9.79663 14.6174 9.88265 13.9213 10.0547 13.2253C10.1407 12.9642 10.2267 12.7032 10.3127 12.4422C10.5708 11.8332 11.0869 11.5721 11.7751 11.3981C12.2912 11.3111 12.8073 11.3111 13.3234 11.3111C15.1298 11.2241 16.9362 11.2241 18.7425 11.2241C20.1188 11.2241 21.4951 11.3111 22.8714 11.3111C23.3015 11.3111 23.7316 11.3111 24.1617 11.4851C24.6778 11.6592 25.1079 12.0072 25.3659 12.6162C25.624 13.1383 25.624 13.7473 25.71 14.2693C25.796 15.8354 25.796 17.4016 25.71 19.0547C25.71 19.5767 25.624 20.0988 25.538 20.6208C25.1939 21.8389 24.5058 22.2739 23.3875 22.3609C22.1833 22.4479 21.065 22.4479 19.8608 22.5349C19.2586 22.4479 18.5705 22.4479 17.8824 22.4479ZM16.162 19.1417C17.7103 18.2716 19.2586 17.4016 20.807 16.5315C19.2586 15.6614 17.7103 14.7914 16.162 13.9213C16.162 15.6614 16.162 17.4016 16.162 19.1417Z" fill="white"/>
</svg>

<svg width="35" height="35" fill="none" xmlns="http://www.w3.org/2000/svg"><path d="M17.968 34.455C8.592 34.455.937 26.71.937 17.227S8.592 0 17.968 0C27.344 0 35 7.744 35 17.227c0 9.484-7.656 17.228-17.032 17.228zm0-33.15c-8.687 0-15.741 7.135-15.741 15.922 0 8.788 7.054 15.923 15.741 15.923 8.688 0 15.742-7.135 15.742-15.923 0-8.787-7.054-15.922-15.742-15.922z" fill="#fff"/><path d="M17.882 22.448c-1.72 0-3.44 0-5.16-.087-.517 0-1.119-.087-1.635-.348a1.698 1.698 0 01-.774-.783c-.258-.61-.344-1.218-.43-1.914-.086-1.305-.086-2.697-.086-4.003 0-.696.086-1.392.258-2.088l.258-.783c.258-.609.774-.87 1.462-1.044.516-.087 1.032-.087 1.548-.087 1.807-.087 3.613-.087 5.42-.087 1.376 0 2.752.087 4.128.087.43 0 .86 0 1.29.174.517.174.947.522 1.205 1.131.258.522.258 1.131.344 1.653a44.404 44.404 0 010 4.786c0 .522-.086 1.044-.172 1.566-.344 1.218-1.032 1.653-2.15 1.74-1.205.087-2.323.087-3.527.174-.602-.087-1.29-.087-1.979-.087zm-1.72-3.306l4.645-2.61-4.645-2.61v5.22z" fill="#fff"/></svg>
